ir/no-lock.svg

<svg stroke-width="1.5" viewBox="0 0 24 24" fill="none" xmlns="http://www.w3.org/2000/svg" height="1em" width="1em">
  <path d="M11.5 12H6.6C6.26863 12 6 12.2686 6 12.6V19.4C6 19.7314 6.26863 20 6.6 20H17.4C17.7314 20 18 19.7314 18 19.4V18.5" stroke="currentColor" stroke-linecap="round" stroke-linejoin="round"/>
  <path d="M16 12V8C16 6.66667 15.2 4 12 4C11.2532 4 10.6371 4.14525 10.1313 4.38491" stroke="currentColor" stroke-linecap="round" stroke-linejoin="round"/>
  <path d="M16 12H17.4C17.7314 12 18 12.2686 18 12.6V13" stroke="currentColor" stroke-linecap="round" stroke-linejoin="round"/>
  <path d="M8 8V8.5V12" stroke="currentColor" stroke-linecap="round" stroke-linejoin="round"/>
  <path d="M3 3L21 21" stroke="currentColor" stroke-linecap="round" stroke-linejoin="round"/>
</svg>

<svg stroke-width="1.5" viewBox="0 0 24 24" fill="none" xmlns="http://www.w3.org/2000/svg" height="1em" width="1em">
  <path d="M11.5 12H6.6a.6.6 0 0 0-.6.6v6.8a.6.6 0 0 0 .6.6h10.8a.6.6 0 0 0 .6-.6v-.9M16 12V8c0-1.333-.8-4-4-4-.747 0-1.363.145-1.869.385M16 12h1.4a.6.6 0 0 1 .6.6v.4M8 8v4M3 3l18 18" stroke="currentColor" stroke-linecap="round" stroke-linejoin="round"/>
</svg>
